src/assets/layout/Messages.svg

<?xml version="1.0" encoding="UTF-8"?>
<svg width="24px" height="24px" viewBox="0 0 24 24" version="1.1" xmlns="http://www.w3.org/2000/svg" xmlns:xlink="http://www.w3.org/1999/xlink">
    <title>Foundations/Icons/Messages@1x</title>
    <g id="💡-Icons" stroke="none" stroke-width="1" fill="none" fill-rule="evenodd">
        <g id="Foundations/Icons/Messages" fill="#14232E">
            <path d="M21.9905705,7.0310559 L21.9905705,6.58385093 C21.9853768,5.15522344 20.8850231,4 19.5294672,4 L4.45167374,4 C3.09979889,4.00544847 2.00516975,5.1590924 2,6.58385093 L2,17.4062112 C2,18.8348492 3.09612785,19.9945263 4.45167374,20 L19.5388967,20 C20.8981265,20 22,18.8387212 22,17.4062112 L22,7.04099379 L21.9905705,7.0310559 Z M4.45167374,5.19254658 L19.5388967,5.19254658 C20.2658468,5.19796122 20.8538911,5.81770878 20.8590288,6.58385093 L20.8590288,6.64347826 L11.8538425,10.7180124 L3.15983027,6.31552795 C3.28125368,5.66442579 3.82206159,5.19430907 4.45167374,5.19254658 Z M19.5388967,18.8074535 L4.45167374,18.8074535 C3.72106231,18.8019923 3.13154173,18.1762315 3.13154173,17.4062112 L3.13154173,7.62732919 L11.6181047,11.910559 C11.6947522,11.9489527 11.7784119,11.9692996 11.863272,11.9701863 C11.938129,11.9841191 12.0147235,11.9841191 12.0895804,11.9701863 L20.8590288,7.97515528 L20.8590288,17.4360248 C20.8436375,18.198242 20.2528568,18.807626 19.5294672,18.8074535 L19.5388967,18.8074535 Z" id="Shape"></path>
        </g>
    </g>
</svg>

<svg width="24" height="24" viewBox="0 0 24 24" xmlns="http://www.w3.org/2000/svg"><path d="M21.99 7.031v-.447C21.986 5.155 20.886 4 19.53 4H4.451C3.1 4.005 2.005 5.16 2 6.584v10.822C2 18.835 3.096 19.995 4.452 20h15.087C20.899 20 22 18.839 22 17.406V7.041l-.01-.01zM4.453 5.193h15.087c.727.005 1.315.625 1.32 1.39v.06l-9.005 4.075L3.16 6.316c.121-.652.662-1.122 1.292-1.123zm15.087 13.614H4.452c-.73-.005-1.32-.63-1.32-1.4v-9.78l8.486 4.284a.56.56 0 00.245.06.618.618 0 00.227 0l8.769-3.996v9.461c-.015.762-.606 1.372-1.33 1.371h.01z" fill="#14232E" fill-rule="evenodd"/></svg>
